svgs/duotone/block-brick.svg

<svg xmlns="http://www.w3.org/2000/svg" viewBox="0 0 448 512"><!--! Font Awesome Pro 6.6.0 by @fontawesome - https://fontawesome.com License - https://fontawesome.com/license (Commercial License) Copyright 2024 Fonticons, Inc. --><path class="fa-secondary" style="fill:var(--fa-secondary-color,inherit);opacity:var(--fa-secondary-opacity,.4);" d="M0 96l0 16 64 0 0-80C28.7 32 0 60.7 0 96zm0 48l0 96 208 0 0-96L0 144zM0 272l0 96 64 0 0-96L0 272zM0 400l0 16c0 35.3 28.7 64 64 64l144 0 0-80L0 400zM96 32l0 80 256 0 0-80L96 32zm0 240l0 96 256 0 0-96L96 272zM240 144l0 96 208 0 0-96-208 0zm0 256l0 80 144 0c35.3 0 64-28.7 64-64l0-16-208 0zM384 32l0 80 64 0 0-16c0-35.3-28.7-64-64-64zm0 240l0 96 64 0 0-96-64 0z"/><path class="fa-primary" style="fill:var(--fa-primary-color,inherit);opacity:var(--fa-primary-opacity,1);" d="M64 112L0 112l0 32 208 0 0 96L0 240l0 32 64 0 0 96L0 368l0 32 208 0 0 80 32 0 0-80 208 0 0-32-64 0 0-96 64 0 0-32-208 0 0-96 208 0 0-32-64 0 0-80-32 0 0 80L96 112l0-80L64 32l0 80zM352 368L96 368l0-96 256 0 0 96z"/></svg>

<svg xmlns="http://www.w3.org/2000/svg" viewBox="0 0 448 512"><!--! Font Awesome Pro 6.4.2 by @fontawesome - https://fontawesome.com License - https://fontawesome.com/license (Commercial License) Copyright 2023 Fonticons, Inc. --><path class="fa-primary" style="fill:var(--fa-primary-color,inherit);opacity:var(--fa-primary-opacity,1);" d="M64 112H0v32H208v96H0v32H64v96H0v32H208v80h32V400H448V368H384V272h64V240H240V144H448V112H384V32H352v80H96V32H64v80zM352 368H96V272H352v96z"/><path class="fa-secondary" style="fill:var(--fa-secondary-color,inherit);opacity:var(--fa-secondary-opacity,.4);" d="M96 32v80H352V32H96zM64 112V32C28.7 32 0 60.7 0 96v16H64zM0 144v96H208V144H0zM0 368H64V272H0v96zm0 32v16c0 35.3 28.7 64 64 64H208V400H0zm240 0v80H384c35.3 0 64-28.7 64-64V400H240zm208-32V272H384v96h64zm-96 0V272H96v96H352zm96-224H240v96H448V144zm0-32V96c0-35.3-28.7-64-64-64v80h64z"/></svg>
